assets/img/braze_icons/arrow-up-left.svg

<svg fill="none" height="24" viewBox="0 0 24 24" width="24" xmlns="http://www.w3.org/2000/svg"><path d="m7 6c-.55228 0-1 .44772-1 1v10c0 .5523.44772 1 1 1s1-.4477 1-1v-7.58579l8.2929 8.29289c.3905.3905 1.0237.3905 1.4142 0s.3905-1.0237 0-1.4142l-8.29289-8.2929h7.58579c.5523 0 1-.44772 1-1s-.4477-1-1-1z" fill="#801ed7"/></svg>

<svg width="24" height="24" viewBox="0 0 24 24" fill="none" xmlns="http://www.w3.org/2000/svg">
<path d="M7 6C6.44772 6 6 6.44772 6 7V17C6 17.5523 6.44772 18 7 18C7.55228 18 8 17.5523 8 17V9.41421L16.2929 17.7071C16.6834 18.0976 17.3166 18.0976 17.7071 17.7071C18.0976 17.3166 18.0976 16.6834 17.7071 16.2929L9.41421 8H17C17.5523 8 18 7.55228 18 7C18 6.44772 17.5523 6 17 6H7Z" fill="#801ED7"/>
</svg>
